svgs/duotone/camera-security.svg

<svg xmlns="http://www.w3.org/2000/svg" viewBox="0 0 448 512"><!-- Font Awesome Pro 6.0.0-alpha2 by @fontawesome - https://fontawesome.com License - https://fontawesome.com/license (Commercial License) --><defs><style>.fa-secondary{opacity:.4}</style></defs><path d="M224 112C170.965 112 128 154.963 128 208C128 261.035 170.965 304 224 304S320 261.035 320 208C320 154.963 277.035 112 224 112Z" class="fa-secondary"/><path d="M384 0H64C28.625 0 0 28.625 0 64V352C0 387.375 28.625 416 64 416H136.75L76.5 450.875C69.625 455.125 64 465.25 64 473.375V485.375C64 500 76 512 90.75 512H357.375C372.125 512 384 500 384 485.375V473.5C384 465.25 378.375 455.125 371.375 450.875L311.25 416H384C419.375 416 448 387.375 448 352V64C448 28.625 419.375 0 384 0ZM224 336C153.223 336 96 278.666 96 208C96 137.332 153.334 80 224 80S352 137.332 352 208C352 278.666 294.666 336 224 336Z" class="fa-primary"/></svg>

<svg xmlns="http://www.w3.org/2000/svg" viewBox="0 0 448 512"><!--! Font Awesome Pro 6.3.0 by @fontawesome - https://fontawesome.com License - https://fontawesome.com/license (Commercial License) Copyright 2023 Fonticons, Inc. --><defs><style>.fa-secondary{opacity:.4}</style></defs><path class="fa-primary" d="M384 0h-320c-35.38 0-64 28.62-64 64v288c0 35.38 28.62 64 64 64h72.75L76.5 450.9C69.63 455.1 64 465.3 64 473.4v12C64 500 76 512 90.75 512h266.6C372.1 512 384 500 384 485.4V473.5c0-8.25-5.625-18.38-12.62-22.62L311.3 416h72.75c35.38 0 64-28.62 64-64V64C448 28.62 419.4 0 384 0zM224 336c-70.78 0-127.1-57.33-127.1-128c0-70.67 57.33-128 127.1-128s128 57.33 128 128C352 278.7 294.7 336 224 336z"/><path class="fa-secondary" d="M224 112c-53.04 0-96 42.96-96 96c0 53.04 42.96 96 96 96s96-42.96 96-96C320 154.1 277 112 224 112z"/></svg>
